X: 1
T: Piper's Despair
M: 4/4
L: 1/8
K: E Dorian
|:EFGA BAFA|B/c/d ec dBAF|D2 F/E/D ADFA|Bdec dBAF|
|EFGA BA A/A/A|B/c/d ec dBAF|D2 FA dfaf|1 gfed Be e2 :|2 gfed Beef||
|e2 g/f/e begf|efga bgaf|d2 fd Adfe|defg afdf|
|e2 ge begf|efga bgaf|~d3f a2 af|1 gfed Beef:|2 gfed Be e2 ||
